resources/svg/minimise-alt.svg

<svg width="15" height="15" viewBox="0 0 15 15" fill="none" xmlns="http://www.w3.org/2000/svg">
<path fill-rule="evenodd" clip-rule="evenodd" d="M13.8536 1.85356L10.7071 5.00001L13 5.00001V6.00001L9.00001 6.00001V2.00001H10V4.2929L13.1465 1.14645L13.8536 1.85356ZM2.00001 9.00001L6.00001 9.00001L6.00001 13H5.00001L5.00001 10.7071L1.85356 13.8536L1.14645 13.1465L4.2929 10L2.00001 10L2.00001 9.00001Z" fill="black"/>
</svg>

<svg viewBox="0 0 15 15" fill="none" xmlns="http://www.w3.org/2000/svg" fill="currentColor"><path fill-rule="evenodd" clip-rule="evenodd" d="M13.854 1.854L10.707 5H13v1H9V2h1v2.293l3.146-3.147.708.708zM2 9h4v4H5v-2.293l-3.146 3.147-.708-.707L4.293 10H2V9z" fill="currentColor"/></svg>
